apps/24/system-file-manager.svg

<?xml version="1.0" encoding="UTF-8" standalone="no"?>
<svg
   xmlns:dc="http://purl.org/dc/elements/1.1/"
   xmlns:cc="http://creativecommons.org/ns#"
   xmlns:rdf="http://www.w3.org/1999/02/22-rdf-syntax-ns#"
   xmlns:svg="http://www.w3.org/2000/svg"
   xmlns="http://www.w3.org/2000/svg"
   xmlns:xlink="http://www.w3.org/1999/xlink"
   version="1.1"
   width="24"
   height="24"
   id="svg10994">
  <defs
     id="defs10996">
    <linearGradient
       x1="27.557428"
       y1="7.162672"
       x2="27.557428"
       y2="21.386522"
       id="linearGradient4440-9"
       xlink:href="#linearGradient3454-2-5-0-3-4-1"
       gradientUnits="userSpaceOnUse"
       gradientTransform="matrix(0.62762637,0,0,0.7245642,2.9730682,-4.3726321)" />
    <linearGradient
       id="linearGradient3454-2-5-0-3-4-1">
      <stop
         id="stop3456-4-9-38-1-8-8"
         style="stop-color:#ffffff;stop-opacity:1"
         offset="0" />
      <stop
         id="stop3458-39-80-3-5-5-8"
         style="stop-color:#ffffff;stop-opacity:0.23529412"
         offset="0.0097359" />
      <stop
         id="stop3460-7-0-2-4-2-7"
         style="stop-color:#ffffff;stop-opacity:0.15686275"
         offset="0.99001008" />
      <stop
         id="stop3462-0-9-8-7-2-3"
         style="stop-color:#ffffff;stop-opacity:0.39215687"
         offset="1" />
    </linearGradient>
    <linearGradient
       x1="22.934725"
       y1="49.629246"
       x2="22.809399"
       y2="36.657963"
       id="linearGradient4436-4"
       xlink:href="#linearGradient6129-963-697-142-998-580-273-5-3"
       gradientUnits="userSpaceOnUse"
       gradientTransform="matrix(0.54761895,0,0,0.48299421,-1.1065518,-8.2449121)" />
    <linearGradient
       id="linearGradient6129-963-697-142-998-580-273-5-3">
      <stop
         id="stop2661-1-2"
         style="stop-color:#0a0a0a;stop-opacity:0.498"
         offset="0" />
      <stop
         id="stop2663-85-8"
         style="stop-color:#0a0a0a;stop-opacity:0"
         offset="1" />
    </linearGradient>
    <linearGradient
       x1="35.792694"
       y1="17.118193"
       x2="35.792694"
       y2="43.761127"
       id="linearGradient4430-9"
       xlink:href="#linearGradient4632-0-6-4-3-4-0"
       gradientUnits="userSpaceOnUse"
       gradientTransform="matrix(0.4666607,0,0,0.46428558,0.83644822,-8.1607121)" />
    <linearGradient
       id="linearGradient4632-0-6-4-3-4-0">
      <stop
         id="stop4634-4-4-7-7-4-8"
         style="stop-color:#e9e9e9;stop-opacity:1"
         offset="0" />
      <stop
         id="stop4636-3-1-5-1-3-9"
         style="stop-color:#b4b4b4;stop-opacity:1"
         offset="1" />
    </linearGradient>
    <linearGradient
       x1="21.37039"
       y1="4.73244"
       x2="21.37039"
       y2="34.143417"
       id="linearGradient4418-4"
       xlink:href="#linearGradient4325-0"
       gradientUnits="userSpaceOnUse"
       gradientTransform="matrix(0.43131243,0,0,0.48638011,1.9898582,-5.8145921)" />
    <linearGradient
       id="linearGradient4325-0">
      <stop
         id="stop4327-4"
         style="stop-color:#ffffff;stop-opacity:1"
         offset="0" />
      <stop
         id="stop4329-5"
         style="stop-color:#ffffff;stop-opacity:0.23529412"
         offset="0.1106325" />
      <stop
         id="stop4331-6"
         style="stop-color:#ffffff;stop-opacity:0.15686275"
         offset="0.99001008" />
      <stop
         id="stop4333-7"
         style="stop-color:#ffffff;stop-opacity:0.39215687"
         offset="1" />
    </linearGradient>
    <linearGradient
       x1="62.988873"
       y1="13"
       x2="62.988873"
       y2="16"
       id="linearGradient4414-2"
       xlink:href="#linearGradient4646-7-4-3-5-6"
       gradientUnits="userSpaceOnUse"
       gradientTransform="matrix(0.49096263,0,0,0.48984879,-24.706222,-8.7127621)" />
    <linearGradient
       id="linearGradient4646-7-4-3-5-6">
      <stop
         id="stop4648-8-0-3-6-5"
         style="stop-color:#f9f9f9;stop-opacity:1"
         offset="0" />
      <stop
         id="stop4650-1-7-3-4-8"
         style="stop-color:#d8d8d8;stop-opacity:1"
         offset="1" />
    </linearGradient>
    <linearGradient
       x1="302.85715"
       y1="366.64789"
       x2="302.85715"
       y2="609.50507"
       id="linearGradient3028"
       xlink:href="#linearGradient5048"
       gradientUnits="userSpaceOnUse"
       gradientTransform="matrix(2.774389,0,0,1.969706,-1892.179,-872.8854)" />
    <linearGradient
       id="linearGradient5048">
      <stop
         id="stop5050"
         style="stop-color:#000000;stop-opacity:0"
         offset="0" />
      <stop
         id="stop5056"
         style="stop-color:#000000;stop-opacity:1"
         offset="0.5" />
      <stop
         id="stop5052"
         style="stop-color:#000000;stop-opacity:0"
         offset="1" />
    </linearGradient>
    <radialGradient
       cx="605.71429"
       cy="486.64789"
       r="117.14286"
       fx="605.71429"
       fy="486.64789"
       id="radialGradient3030"
       xlink:href="#linearGradient5060"
       gradientUnits="userSpaceOnUse"
       gradientTransform="matrix(2.774389,0,0,1.969706,-1891.633,-872.8854)" />
    <linearGradient
       id="linearGradient5060">
      <stop
         id="stop5062"
         style="stop-color:#000000;stop-opacity:1"
         offset="0" />
      <stop
         id="stop5064"
         style="stop-color:#000000;stop-opacity:0"
         offset="1" />
    </linearGradient>
    <radialGradient
       cx="605.71429"
       cy="486.64789"
       r="117.14286"
       fx="605.71429"
       fy="486.64789"
       id="radialGradient3032"
       xlink:href="#linearGradient5060"
       gradientUnits="userSpaceOnUse"
       gradientTransform="matrix(-2.774389,0,0,1.969706,112.7623,-872.8854)" />
    <linearGradient
       id="linearGradient3104-8-8-97-4-6-11-5-5-0-5">
      <stop
         id="stop3106-5-4-3-5-0-2-1-0-6-6"
         style="stop-color:#000000;stop-opacity:0.32173914"
         offset="0" />
      <stop
         id="stop3108-4-3-7-8-2-0-7-9-1-4"
         style="stop-color:#000000;stop-opacity:0.27826086"
         offset="1" />
    </linearGradient>
    <linearGradient
       x1="-51.786404"
       y1="53.514328"
       x2="-51.786404"
       y2="3.6336823"
       id="linearGradient10992"
       xlink:href="#linearGradient3104-8-8-97-4-6-11-5-5-0-5"
       gradientUnits="userSpaceOnUse"
       gradientTransform="matrix(0.40212523,0,0,0.398023,53.350858,-8.7909421)" />
    <linearGradient
       x1="27.557428"
       y1="7.162672"
       x2="27.557428"
       y2="21.386522"
       id="linearGradient3044"
       xlink:href="#linearGradient3454-2-5-0-3-4-1"
       gradientUnits="userSpaceOnUse"
       gradientTransform="matrix(0.62762637,0,0,0.7245642,-37.026932,3.6273679)" />
    <linearGradient
       x1="22.934725"
       y1="49.629246"
       x2="22.809399"
       y2="36.657963"
       id="linearGradient3047"
       xlink:href="#linearGradient6129-963-697-142-998-580-273-5-3"
       gradientUnits="userSpaceOnUse"
       gradientTransform="matrix(0.54761895,0,0,0.48299421,-41.106552,-0.2449121)" />
    <linearGradient
       x1="35.792694"
       y1="17.118193"
       x2="35.792694"
       y2="43.761127"
       id="linearGradient3050"
       xlink:href="#linearGradient4632-0-6-4-3-4-0"
       gradientUnits="userSpaceOnUse"
       gradientTransform="matrix(0.4666607,0,0,0.46428558,-39.163552,-0.1607121)" />
    <linearGradient
       x1="21.37039"
       y1="4.73244"
       x2="21.37039"
       y2="34.143417"
       id="linearGradient3053"
       xlink:href="#linearGradient4325-0"
       gradientUnits="userSpaceOnUse"
       gradientTransform="matrix(0.43131243,0,0,0.48638011,-38.010142,2.1854079)" />
    <linearGradient
       x1="62.988873"
       y1="13"
       x2="62.988873"
       y2="16"
       id="linearGradient3056"
       xlink:href="#linearGradient4646-7-4-3-5-6"
       gradientUnits="userSpaceOnUse"
       gradientTransform="matrix(0.49096263,0,0,0.48984879,-64.706222,-0.7127621)" />
    <linearGradient
       x1="-51.786404"
       y1="53.514328"
       x2="-51.786404"
       y2="3.6336823"
       id="linearGradient3064"
       xlink:href="#linearGradient3104-8-8-97-4-6-11-5-5-0-5"
       gradientUnits="userSpaceOnUse"
       gradientTransform="matrix(0.40212523,0,0,0.398023,13.350858,-0.7909421)" />
    <radialGradient
       cx="605.71429"
       cy="486.64789"
       r="117.14286"
       fx="605.71429"
       fy="486.64789"
       id="radialGradient3030-6"
       xlink:href="#linearGradient5060"
       gradientUnits="userSpaceOnUse"
       gradientTransform="matrix(2.774389,0,0,1.969706,-1891.633,-872.8854)" />
    <radialGradient
       cx="605.71429"
       cy="486.64789"
       r="117.14286"
       fx="605.71429"
       fy="486.64789"
       id="radialGradient3032-3"
       xlink:href="#linearGradient5060"
       gradientUnits="userSpaceOnUse"
       gradientTransform="matrix(-2.774389,0,0,1.969706,112.7623,-872.8854)" />
    <linearGradient
       x1="62.542889"
       y1="11.662297"
       x2="62.542889"
       y2="13.703743"
       id="linearGradient4414-2-5"
       xlink:href="#linearGradient4646-7-4-3-5-6"
       gradientUnits="userSpaceOnUse"
       gradientTransform="matrix(0.49096263,0,0,0.48984879,-24.706222,0.2872379)" />
    <linearGradient
       x1="21.37039"
       y1="4.73244"
       x2="21.37039"
       y2="34.143417"
       id="linearGradient4418-4-9"
       xlink:href="#linearGradient4325-0"
       gradientUnits="userSpaceOnUse"
       gradientTransform="matrix(0.43131243,0,0,0.48638011,1.9898582,3.1854079)" />
    <linearGradient
       xlink:href="#linearGradient4632-0-6-4-3-4-0"
       id="linearGradient4208"
       x1="13"
       y1="8"
       x2="13"
       y2="20"
       gradientUnits="userSpaceOnUse"
       gradientTransform="translate(0,1)" />
    <linearGradient
       id="linearGradient4632-0-6-4-3-4-0-4">
      <stop
         id="stop4634-4-4-7-7-4-8-3"
         style="stop-color:#b4cee1;stop-opacity:1"
         offset="0" />
      <stop
         id="stop4636-3-1-5-1-3-9-8"
         style="stop-color:#5d9fcd;stop-opacity:1"
         offset="1" />
    </linearGradient>
    <linearGradient
       xlink:href="#linearGradient5060"
       id="linearGradient4286"
       x1="12"
       y1="23"
       x2="12"
       y2="18"
       gradientUnits="userSpaceOnUse"
       gradientTransform="translate(0,1)" />
    <linearGradient
       x1="27.557428"
       y1="6.0348444"
       x2="27.557428"
       y2="21.386522"
       id="linearGradient4440-9-3"
       xlink:href="#linearGradient3454-2-5-0-3-4-1"
       gradientUnits="userSpaceOnUse"
       gradientTransform="matrix(0.62762637,0,0,0.7245642,2.9730682,4.6273679)" />
    <linearGradient
       xlink:href="#linearGradient5048"
       id="linearGradient3466"
       gradientUnits="userSpaceOnUse"
       gradientTransform="matrix(2.774389,0,0,1.969706,-1892.179,-872.8854)"
       x1="302.85715"
       y1="366.64789"
       x2="302.85715"
       y2="609.50507" />
  </defs>
  <metadata
     id="metadata10999">
    <rdf:RDF>
      <cc:Work
         rdf:about="">
        <dc:format>image/svg+xml</dc:format>
        <dc:type
           rdf:resource="http://purl.org/dc/dcmitype/StillImage" />
        <dc:title />
      </cc:Work>
    </rdf:RDF>
  </metadata>
  <g
     style="stroke-width:1.88256383;stroke-miterlimit:4;stroke-dasharray:none"
     id="g3490-6"
     transform="matrix(0.5459263,0,0,0.5168524,-0.96573178,-1.578182)">
    <g
       style="display:inline;stroke-width:104.96237946;stroke-miterlimit:4;stroke-dasharray:none"
       id="g5022-1"
       transform="matrix(0.02165152,0,0,0.01485743,43.0076,42.68539)">
      <rect
         style="display:inline;overflow:visible;visibility:visible;opacity:0.40206185;fill:url(#linearGradient3466);fill-opacity:1;fill-rule:nonzero;stroke:none;stroke-width:104.96237946;marker:none"
         id="rect4173-4-5"
         y="-150.69685"
         x="-1559.2523"
         height="478.35718"
         width="1339.6335" />
      <path
         style="display:inline;overflow:visible;visibility:visible;opacity:0.40206185;fill:url(#radialGradient3030-6);fill-opacity:1;fill-rule:nonzero;stroke:none;stroke-width:104.96237946;marker:none"
         id="path5058-9-0"
         d="m -219.61876,-150.68038 c 0,0 0,478.33079 0,478.33079 142.874166,0.90045 345.40022,-107.16966 345.40014,-239.196175 0,-132.026537 -159.436816,-239.134595 -345.40014,-239.134615 z" />
      <path
         style="display:inline;overflow:visible;visibility:visible;opacity:0.40206185;fill:url(#radialGradient3032-3);fill-opacity:1;fill-rule:nonzero;stroke:none;stroke-width:104.96237946;marker:none"
         id="path5018-53-3"
         d="m -1559.2523,-150.68038 c 0,0 0,478.33079 0,478.33079 -142.8742,0.90045 -345.4002,-107.16966 -345.4002,-239.196175 0,-132.026537 159.4368,-239.134595 345.4002,-239.134615 z" />
    </g>
  </g>
  <path
     style="color:#000000;display:inline;overflow:visible;visibility:visible;opacity:0.3;fill:none;stroke:#000000;stroke-width:1;stroke-linecap:butt;stroke-linejoin:miter;stroke-miterlimit:4;stroke-dasharray:none;stroke-dashoffset:0;stroke-opacity:1;marker:none;enable-background:accumulate"
     id="rect3186-4"
     d="m 3.0362982,3.5043839 c -0.277,0 -0.5,0.223 -0.5,0.5 l 0,1.495614 -0.5,0 c -0.277,0 -0.5,0.223 -0.5,0.5 l 0,1.76465 20.9999998,0 0,-1.76465 c 0,-0.277 -0.223,-0.5 -0.5,-0.5 l -11.5,0 0,-1.495614 c 0,-0.277 -0.223,-0.5 -0.5,-0.5 z" />
  <path
     style="color:#000000;display:inline;overflow:visible;visibility:visible;fill:url(#linearGradient4414-2-5);fill-opacity:1;fill-rule:nonzero;stroke:none;stroke-width:1;marker:none;enable-background:accumulate"
     id="rect3409-5-2-5"
     d="m 3.0362982,3.9999979 0,2 -1,0 0,3 19.9999998,0 0,-3 -12,0 0,-2 z" />
  <path
     style="color:#000000;display:inline;overflow:visible;visibility:visible;fill:none;stroke:url(#linearGradient4418-4-9);stroke-width:1;stroke-linecap:round;stroke-linejoin:miter;stroke-miterlimit:4;stroke-dasharray:none;stroke-dashoffset:0;stroke-opacity:1;marker:none;enable-background:accumulate"
     id="rect3409-3-0"
     d="m 3.5362982,4.4999979 0,2 -1,0 0,2.33929 18.9999998,0 0,-2.33929 -11.9999998,0 0,-2 z" />
  <path
     style="color:#000000;font-style:normal;font-variant:normal;font-weight:normal;font-stretch:normal;font-size:medium;line-height:normal;font-family:sans-serif;text-indent:0;text-align:start;text-decoration:none;text-decoration-line:none;text-decoration-style:solid;text-decoration-color:#000000;letter-spacing:normal;word-spacing:normal;text-transform:none;direction:ltr;block-progression:tb;writing-mode:lr-tb;baseline-shift:baseline;text-anchor:start;white-space:normal;clip-rule:nonzero;display:inline;overflow:visible;visibility:visible;opacity:1;isolation:auto;mix-blend-mode:normal;color-interpolation:sRGB;color-interpolation-filters:linearRGB;solid-color:#000000;solid-opacity:1;fill:url(#linearGradient4208);fill-opacity:1.0;fill-rule:nonzero;stroke:#000000;stroke-width:1;stroke-linecap:butt;stroke-linejoin:round;stroke-miterlimit:4;stroke-dasharray:none;stroke-dashoffset:0;stroke-opacity:0.30196078;color-rendering:auto;image-rendering:auto;shape-rendering:auto;text-rendering:auto;enable-background:accumulate"
     d="M 1.5,7.5 1.5,8 1.5,18.000264 1.75,21.5 22.25,21.5 22.5,18.000264 22.5,7.5 Z"
     id="rect4198" />
  <path
     style="color:#000000;font-style:normal;font-variant:normal;font-weight:normal;font-stretch:normal;font-size:medium;line-height:normal;font-family:sans-serif;text-indent:0;text-align:start;text-decoration:none;text-decoration-line:none;text-decoration-style:solid;text-decoration-color:#000000;letter-spacing:normal;word-spacing:normal;text-transform:none;direction:ltr;block-progression:tb;writing-mode:lr-tb;baseline-shift:baseline;text-anchor:start;white-space:normal;clip-rule:nonzero;display:inline;overflow:visible;visibility:visible;opacity:0.3;isolation:auto;mix-blend-mode:normal;color-interpolation:sRGB;color-interpolation-filters:linearRGB;solid-color:#000000;solid-opacity:1;fill:url(#linearGradient4286);fill-opacity:1;fill-rule:nonzero;stroke:none;stroke-width:1;stroke-linecap:butt;stroke-linejoin:round;stroke-miterlimit:4;stroke-dasharray:none;stroke-dashoffset:0;stroke-opacity:1;color-rendering:auto;image-rendering:auto;shape-rendering:auto;text-rendering:auto;enable-background:accumulate"
     d="M 1.5,7 C 1.223869,7.0000276 1.000028,7.2238691 1,7.5 L 1,8 1.25,21.5 c 2.8e-5,0.276131 0.223869,0.499972 0.5,0.5 l 20.5,0 c 0.276131,-2.8e-5 0.499972,-0.223869 0.5,-0.5 L 23,7.5 C 22.999972,7.2238691 22.776131,7.0000276 22.5,7 Z"
     id="path4268" />
  <path
     style="color:#000000;display:inline;overflow:visible;visibility:visible;opacity:0.5;fill:none;stroke:url(#linearGradient4440-9-3);stroke-width:1.00000012;stroke-linecap:round;stroke-linejoin:miter;stroke-miterlimit:4;stroke-dasharray:none;stroke-dashoffset:0;stroke-opacity:1;marker:none;enable-background:accumulate"
     id="path3309-8-0"
     d="M 2.5,8.4999979 2.4462368,18.004917 2.75,20.499998 l 18.5,0 0.258854,-2.444262 L 21.5,8.4999979 Z" />
  <path
     d="m 12.499999,12 -3.875,3.875 0.75,0.75 0.625,-0.625 0,3 2,0 0,-1.5 c 0,-0.277 0.223,-0.5 0.5,-0.5 0.277,0 0.5,0.223 0.5,0.5 l 0,1.5 L 15,19 l 0,-3 0.625,0.625 0.75,-0.75 z M 14,12.5 l 0,0.375 1,1 0,-1.375 z"
     id="path2998-4-8-1"
     style="color:#000000;display:inline;overflow:visible;visibility:visible;opacity:0.3;fill:#ffffff;fill-opacity:1;fill-rule:nonzero;stroke:none;stroke-width:1.70000005;marker:none;enable-background:accumulate" />
  <path
     d="m 12.499999,11 -3.875,3.875 0.75,0.75 0.625,-0.625 0,3 2,0 0,-1.5 c 0,-0.277 0.223,-0.5 0.5,-0.5 0.277,0 0.5,0.223 0.5,0.5 l 0,1.5 L 15,18 l 0,-3 0.625,0.625 0.75,-0.75 z M 14,11.5 l 0,0.375 1,1 0,-1.375 z"
     id="path2998-4-8"
     style="color:#000000;display:inline;overflow:visible;visibility:visible;fill:#6c6c6c;fill-opacity:0.5521628;fill-rule:nonzero;stroke:none;stroke-width:1.70000005;marker:none;enable-background:accumulate" />
</svg>

<svg xmlns="http://www.w3.org/2000/svg" xmlns:xlink="http://www.w3.org/1999/xlink" viewBox="0 0 24 24"><defs><linearGradient id="e"><stop offset="0" stop-color="#fff"/><stop offset=".01" stop-color="#fff" stop-opacity=".235"/><stop offset=".99" stop-color="#fff" stop-opacity=".157"/><stop offset="1" stop-color="#fff" stop-opacity=".392"/></linearGradient><linearGradient id="d"><stop offset="0" stop-color="#e9e9e9"/><stop offset="1" stop-color="#b4b4b4"/></linearGradient><linearGradient id="c"><stop offset="0" stop-color="#fff"/><stop offset=".111" stop-color="#fff" stop-opacity=".235"/><stop offset=".99" stop-color="#fff" stop-opacity=".157"/><stop offset="1" stop-color="#fff" stop-opacity=".392"/></linearGradient><linearGradient id="b"><stop offset="0" stop-color="#f9f9f9"/><stop offset="1" stop-color="#d8d8d8"/></linearGradient><linearGradient id="f"><stop offset="0" stop-opacity="0"/><stop offset=".5"/><stop offset="1" stop-opacity="0"/></linearGradient><linearGradient id="a"><stop offset="0"/><stop offset="1" stop-opacity="0"/></linearGradient><radialGradient cx="605.714" cy="486.648" r="117.143" fx="605.714" fy="486.648" id="h" xlink:href="#a" gradientUnits="userSpaceOnUse" gradientTransform="matrix(2.7744 0 0 1.9697 -1891.633 -872.885)"/><radialGradient cx="605.714" cy="486.648" r="117.143" fx="605.714" fy="486.648" id="i" xlink:href="#a" gradientUnits="userSpaceOnUse" gradientTransform="matrix(-2.7744 0 0 1.9697 112.762 -872.885)"/><linearGradient x1="62.543" y1="11.662" x2="62.543" y2="13.704" id="j" xlink:href="#b" gradientUnits="userSpaceOnUse" gradientTransform="matrix(.49096 0 0 .48985 -24.706 .287)"/><linearGradient x1="21.37" y1="4.732" x2="21.37" y2="34.143" id="k" xlink:href="#c" gradientUnits="userSpaceOnUse" gradientTransform="matrix(.4313 0 0 .48638 1.99 3.185)"/><linearGradient xlink:href="#d" id="l" x1="13" y1="8" x2="13" y2="20" gradientUnits="userSpaceOnUse" gradientTransform="translate(0 1)"/><linearGradient xlink:href="#a" id="m" x1="12" y1="23" x2="12" y2="18" gradientUnits="userSpaceOnUse" gradientTransform="translate(0 1)"/><linearGradient x1="27.557" y1="6.035" x2="27.557" y2="21.387" id="n" xlink:href="#e" gradientUnits="userSpaceOnUse" gradientTransform="matrix(.62763 0 0 .72456 2.973 4.627)"/><linearGradient xlink:href="#f" id="g" gradientUnits="userSpaceOnUse" gradientTransform="matrix(2.7744 0 0 1.9697 -1892.18 -872.885)" x1="302.857" y1="366.648" x2="302.857" y2="609.505"/></defs><g stroke-width="104.962"><path overflow="visible" opacity=".402" fill="url(#g)" d="M-1559.252-150.697H-219.62V327.66h-1339.63z" transform="matrix(.01182 0 0 .00768 22.513 20.484)"/><path d="M-219.62-150.68v478.33c142.875.9 345.4-107.17 345.4-239.196S-33.654-150.68-219.62-150.68z" overflow="visible" opacity=".402" fill="url(#h)" transform="matrix(.01182 0 0 .00768 22.513 20.484)"/><path d="M-1559.252-150.68v478.33c-142.875.9-345.4-107.17-345.4-239.196s159.436-239.134 345.4-239.134z" overflow="visible" opacity=".402" fill="url(#i)" transform="matrix(.01182 0 0 .00768 22.513 20.484)"/></g><path d="M3.036 3.504a.5.5 0 0 0-.5.5V5.5h-.5a.5.5 0 0 0-.5.5v1.765h21V6a.5.5 0 0 0-.5-.5h-11.5V4.004a.5.5 0 0 0-.5-.5z" color="#000" overflow="visible" opacity=".3" fill="none" stroke="#000"/><path d="M3.036 4v2h-1v3h20V6h-12V4z" color="#000" overflow="visible" fill="url(#j)"/><path d="M3.536 4.5v2h-1v2.34h19V6.5h-12v-2z" color="#000" overflow="visible" fill="none" stroke="url(#k)" stroke-linecap="round"/><path style="line-height:normal;text-indent:0;text-align:start;text-decoration-line:none;text-decoration-style:solid;text-decoration-color:#000;text-transform:none;block-progression:tb;isolation:auto;mix-blend-mode:normal" d="M1.5 7.5V18l.25 3.5h20.5l.25-3.5V7.5z" color="#000" font-weight="400" font-family="sans-serif" white-space="normal" overflow="visible" fill="url(#l)" stroke="#000" stroke-linejoin="round" stroke-opacity=".302"/><path style="line-height:normal;text-indent:0;text-align:start;text-decoration-line:none;text-decoration-style:solid;text-decoration-color:#000;text-transform:none;block-progression:tb;isolation:auto;mix-blend-mode:normal" d="M1.5 7a.5.5 0 0 0-.5.5V8l.25 13.5a.5.5 0 0 0 .5.5h20.5a.5.5 0 0 0 .5-.5l.25-14a.5.5 0 0 0-.5-.5z" color="#000" font-weight="400" font-family="sans-serif" white-space="normal" overflow="visible" opacity=".3" fill="url(#m)"/><path d="M2.5 8.5l-.054 9.505.304 2.495h18.5l.26-2.444L21.5 8.5z" color="#000" overflow="visible" opacity=".5" fill="none" stroke="url(#n)" stroke-linecap="round"/><path d="M12.5 12l-3.875 3.875.75.75L10 16v3h2v-1.5a.5.5 0 0 1 1 0V19h2v-3l.625.625.75-.75zm1.5.5v.375l1 1V12.5z" color="#000" overflow="visible" opacity=".3" fill="#fff"/><path d="M12.5 11l-3.875 3.875.75.75L10 15v3h2v-1.5a.5.5 0 0 1 1 0V18h2v-3l.625.625.75-.75zm1.5.5v.375l1 1V11.5z" color="#000" overflow="visible" fill="#6c6c6c" fill-opacity=".552"/></svg>
